!!!OTL: DU MAEDCHEN VOM LANDE
!!!ARE: Europa, Mitteleuropa, Deutschland
!!!SCT: B0378
!!!YEM: Copyright 1995, estate of Helmut Schaffrath.
**kern
*ICvox
*Ivox
*M3/4
*k[f#]
*G:
{4d
=1
4g
4g
8b
8g
=2
4d
4d}
{4d
=3
4e
4e
8g
8e
=4
2d}
{4d
=5
4cc
4cc
8a
8cc
=6
4.b
8dd}
{8g
8b
=7
4.a
8cc
8f#
8a
=8
2g}
==
!!!AGN: Liebes - Lied, Liebes - Lust, Anmache
!!!ONB: ESAC (Essen Associative Code) Database: BOEHME
!!!AMT: simple triple
!!!AIN: vox
!!!EED: Helmut Schaffrath
!!!EEV: 1.0
*-
